X: 9012
T: Da Auld Swaara Jupie
R: barndance
M: 4/4
K: Gmajor
|:D|[M:6/4] G4 G3 D B2 G2|[M:4/4] D2 GD (3B2A2B2|G3 B Bc/B/ AF|
[M:6/4] G4 G3 D B2 G2|[M:4/4] (3D2G2D2 (3B2A2B2|1 D2 G2 G3:|2 d2 g2 g3||
|:a|gfed c2 ec|B2 dB A3 B|G3 B B2 AF|
gfed c2 ec|(3B2d2B2 A3 B|1 d2 g2 g3:|2 D2 G2 G3||
|:D|GFED G2 g2|e2 dB defg|a3 A Bc/B/ AF|
GFED G2 g2|e2 dB (3d2g2d2|1 B2 G2 G3:|2 B G3 G3||

